images/51027006.svg

<?xml version="1.0" encoding="UTF-8"?>
<svg xmlns="http://www.w3.org/2000/svg" xmlns:xlink="http://www.w3.org/1999/xlink" width="300pt" height="300pt" viewBox="0 0 300 300" version="1.1">
<defs>
<g>
<symbol overflow="visible" id="glyph0-0">
<path style="stroke:none;" d="M 0.546875 1.9375 L 0.546875 -7.75 L 6.046875 -7.75 L 6.046875 1.9375 Z M 1.171875 1.328125 L 5.4375 1.328125 L 5.4375 -7.140625 L 1.171875 -7.140625 Z M 1.171875 1.328125 "/>
</symbol>
<symbol overflow="visible" id="glyph0-1">
<path style="stroke:none;" d="M 4.328125 -7.28125 C 3.546875 -7.28125 2.921875 -6.984375 2.453125 -6.390625 C 1.992188 -5.804688 1.765625 -5.007812 1.765625 -4 C 1.765625 -2.988281 1.992188 -2.1875 2.453125 -1.59375 C 2.921875 -1.007812 3.546875 -0.71875 4.328125 -0.71875 C 5.117188 -0.71875 5.742188 -1.007812 6.203125 -1.59375 C 6.660156 -2.1875 6.890625 -2.988281 6.890625 -4 C 6.890625 -5.007812 6.660156 -5.804688 6.203125 -6.390625 C 5.742188 -6.984375 5.117188 -7.28125 4.328125 -7.28125 Z M 4.328125 -8.171875 C 5.453125 -8.171875 6.351562 -7.789062 7.03125 -7.03125 C 7.707031 -6.28125 8.046875 -5.269531 8.046875 -4 C 8.046875 -2.738281 7.707031 -1.726562 7.03125 -0.96875 C 6.351562 -0.21875 5.453125 0.15625 4.328125 0.15625 C 3.203125 0.15625 2.300781 -0.21875 1.625 -0.96875 C 0.957031 -1.71875 0.625 -2.726562 0.625 -4 C 0.625 -5.269531 0.957031 -6.28125 1.625 -7.03125 C 2.300781 -7.789062 3.203125 -8.171875 4.328125 -8.171875 Z M 4.328125 -8.171875 "/>
</symbol>
<symbol overflow="visible" id="glyph0-2">
<path style="stroke:none;" d="M 1.078125 -8.015625 L 2.546875 -8.015625 L 6.09375 -1.3125 L 6.09375 -8.015625 L 7.15625 -8.015625 L 7.15625 0 L 5.6875 0 L 2.125 -6.703125 L 2.125 0 L 1.078125 0 Z M 1.078125 -8.015625 "/>
</symbol>
<symbol overflow="visible" id="glyph0-3">
<path style="stroke:none;" d="M 1.078125 -8.015625 L 2.171875 -8.015625 L 2.171875 -4.734375 L 6.109375 -4.734375 L 6.109375 -8.015625 L 7.1875 -8.015625 L 7.1875 0 L 6.109375 0 L 6.109375 -3.8125 L 2.171875 -3.8125 L 2.171875 0 L 1.078125 0 Z M 1.078125 -8.015625 "/>
</symbol>
</g>
</defs>
<g id="surface11921">
<rect x="0" y="0" width="300" height="300" style="fill:rgb(100%,100%,100%);fill-opacity:1;stroke:none;"/>
<path style="fill:none;stroke-width:1.2;stroke-linecap:butt;stroke-linejoin:miter;stroke:rgb(100%,0%,0%);stroke-opacity:1;stroke-miterlimit:10;" d="M 193.605469 53.363281 L 180.429688 58.71875 "/>
<path style="fill:none;stroke-width:1.2;stroke-linecap:butt;stroke-linejoin:miter;stroke:rgb(0%,0%,0%);stroke-opacity:1;stroke-miterlimit:10;" d="M 180.429688 58.71875 L 167.25 64.074219 "/>
<path style="fill:none;stroke-width:1.2;stroke-linecap:butt;stroke-linejoin:miter;stroke:rgb(100%,0%,0%);stroke-opacity:1;stroke-miterlimit:10;" d="M 196.125 59.5625 L 182.949219 64.917969 "/>
<path style="fill:none;stroke-width:1.2;stroke-linecap:butt;stroke-linejoin:miter;stroke:rgb(0%,0%,0%);stroke-opacity:1;stroke-miterlimit:10;" d="M 182.949219 64.917969 L 169.769531 70.273438 "/>
<path style=" stroke:none;fill-rule:nonzero;fill:rgb(100%,100%,100%);fill-opacity:1;" d="M 190.867188 49.964844 L 199.867188 49.964844 L 199.867188 62.964844 L 190.867188 62.964844 Z M 190.867188 49.964844 "/>
<g style="fill:rgb(100%,0%,0%);fill-opacity:1;">
  <use xlink:href="#glyph0-1" x="190.867188" y="59.866211"/>
</g>
<path style="fill:none;stroke-width:1.2;stroke-linecap:butt;stroke-linejoin:miter;stroke:rgb(0%,0%,0%);stroke-opacity:1;stroke-miterlimit:10;" d="M 168.511719 67.175781 L 156.433594 59.660156 "/>
<path style="fill:none;stroke-width:1.2;stroke-linecap:butt;stroke-linejoin:miter;stroke:rgb(0%,0%,100%);stroke-opacity:1;stroke-miterlimit:10;" d="M 156.433594 59.660156 L 144.355469 52.148438 "/>
<path style="fill:none;stroke-width:1.2;stroke-linecap:butt;stroke-linejoin:miter;stroke:rgb(0%,0%,0%);stroke-opacity:1;stroke-miterlimit:10;" d="M 161.6875 94.792969 L 168.511719 67.175781 "/>
<path style="fill:none;stroke-width:1.2;stroke-linecap:butt;stroke-linejoin:miter;stroke:rgb(0%,0%,100%);stroke-opacity:1;stroke-miterlimit:10;" d="M 144.355469 52.148438 L 133.476562 61.3125 "/>
<path style="fill:none;stroke-width:1.2;stroke-linecap:butt;stroke-linejoin:miter;stroke:rgb(0%,0%,0%);stroke-opacity:1;stroke-miterlimit:10;" d="M 133.476562 61.3125 L 122.601562 70.480469 "/>
<path style=" stroke:none;fill-rule:nonzero;fill:rgb(100%,100%,100%);fill-opacity:1;" d="M 136.355469 45.648438 L 153.355469 45.648438 L 153.355469 58.648438 L 136.355469 58.648438 Z M 136.355469 45.648438 "/>
<g style="fill:rgb(0%,0%,100%);fill-opacity:1;">
  <use xlink:href="#glyph0-2" x="136.355469" y="55.549805"/>
  <use xlink:href="#glyph0-3" x="144.338867" y="55.549805"/>
</g>
<path style="fill:none;stroke-width:1.2;stroke-linecap:butt;stroke-linejoin:miter;stroke:rgb(0%,0%,0%);stroke-opacity:1;stroke-miterlimit:10;" d="M 123.402344 67.230469 L 109.59375 63.816406 "/>
<path style="fill:none;stroke-width:1.2;stroke-linecap:butt;stroke-linejoin:miter;stroke:rgb(100%,0%,0%);stroke-opacity:1;stroke-miterlimit:10;" d="M 109.59375 63.816406 L 95.785156 60.402344 "/>
<path style="fill:none;stroke-width:1.2;stroke-linecap:butt;stroke-linejoin:miter;stroke:rgb(0%,0%,0%);stroke-opacity:1;stroke-miterlimit:10;" d="M 121.796875 73.726562 L 107.988281 70.316406 "/>
<path style="fill:none;stroke-width:1.2;stroke-linecap:butt;stroke-linejoin:miter;stroke:rgb(100%,0%,0%);stroke-opacity:1;stroke-miterlimit:10;" d="M 107.988281 70.316406 L 94.179688 66.902344 "/>
<path style="fill:none;stroke-width:1.2;stroke-linecap:butt;stroke-linejoin:miter;stroke:rgb(0%,0%,0%);stroke-opacity:1;stroke-miterlimit:10;" d="M 122.601562 70.480469 L 133.3125 96.832031 "/>
<path style=" stroke:none;fill-rule:nonzero;fill:rgb(100%,100%,100%);fill-opacity:1;" d="M 85.984375 57.152344 L 94.984375 57.152344 L 94.984375 70.152344 L 85.984375 70.152344 Z M 85.984375 57.152344 "/>
<g style="fill:rgb(100%,0%,0%);fill-opacity:1;">
  <use xlink:href="#glyph0-1" x="85.984375" y="67.053711"/>
</g>
<path style="fill:none;stroke-width:1.2;stroke-linecap:butt;stroke-linejoin:miter;stroke:rgb(0%,0%,0%);stroke-opacity:1;stroke-miterlimit:10;" d="M 133.3125 96.832031 L 161.6875 94.792969 "/>
<path style="fill:none;stroke-width:1.2;stroke-linecap:butt;stroke-linejoin:miter;stroke:rgb(0%,0%,0%);stroke-opacity:1;stroke-miterlimit:10;" d="M 135.667969 89.953125 L 158.367188 88.320312 "/>
<path style="fill:none;stroke-width:1.2;stroke-linecap:butt;stroke-linejoin:miter;stroke:rgb(0%,0%,0%);stroke-opacity:1;stroke-miterlimit:10;" d="M 133.3125 96.832031 L 118.285156 120.988281 "/>
<path style="fill:none;stroke-width:1.2;stroke-linecap:butt;stroke-linejoin:miter;stroke:rgb(0%,0%,0%);stroke-opacity:1;stroke-miterlimit:10;" d="M 161.6875 94.792969 L 180.015625 116.546875 "/>
<path style="fill:none;stroke-width:1.2;stroke-linecap:butt;stroke-linejoin:miter;stroke:rgb(0%,0%,0%);stroke-opacity:1;stroke-miterlimit:10;" d="M 180.015625 116.546875 L 208.390625 114.503906 "/>
<path style="fill:none;stroke-width:1.2;stroke-linecap:butt;stroke-linejoin:miter;stroke:rgb(0%,0%,0%);stroke-opacity:1;stroke-miterlimit:10;" d="M 173.191406 144.164062 L 180.015625 116.546875 "/>
<path style="fill:none;stroke-width:1.2;stroke-linecap:butt;stroke-linejoin:miter;stroke:rgb(0%,0%,0%);stroke-opacity:1;stroke-miterlimit:10;" d="M 180.371094 143.007812 L 185.832031 120.914062 "/>
<path style="fill:none;stroke-width:1.2;stroke-linecap:butt;stroke-linejoin:miter;stroke:rgb(0%,0%,0%);stroke-opacity:1;stroke-miterlimit:10;" d="M 208.390625 114.503906 L 219.101562 140.859375 "/>
<path style="fill:none;stroke-width:1.2;stroke-linecap:butt;stroke-linejoin:miter;stroke:rgb(0%,0%,0%);stroke-opacity:1;stroke-miterlimit:10;" d="M 215.664062 114.617188 L 224.230469 135.703125 "/>
<path style="fill:none;stroke-width:1.2;stroke-linecap:butt;stroke-linejoin:miter;stroke:rgb(0%,0%,0%);stroke-opacity:1;stroke-miterlimit:10;" d="M 225.859375 92.050781 L 208.390625 114.503906 "/>
<path style="fill:none;stroke-width:1.2;stroke-linecap:butt;stroke-linejoin:miter;stroke:rgb(0%,0%,0%);stroke-opacity:1;stroke-miterlimit:10;" d="M 219.101562 140.859375 L 208.222656 150.023438 "/>
<path style="fill:none;stroke-width:1.2;stroke-linecap:butt;stroke-linejoin:miter;stroke:rgb(0%,0%,100%);stroke-opacity:1;stroke-miterlimit:10;" d="M 208.222656 150.023438 L 197.347656 159.191406 "/>
<path style="fill:none;stroke-width:1.2;stroke-linecap:butt;stroke-linejoin:miter;stroke:rgb(0%,0%,0%);stroke-opacity:1;stroke-miterlimit:10;" d="M 219.101562 140.859375 L 247.28125 144.761719 "/>
<path style="fill:none;stroke-width:1.2;stroke-linecap:butt;stroke-linejoin:miter;stroke:rgb(0%,0%,100%);stroke-opacity:1;stroke-miterlimit:10;" d="M 197.347656 159.191406 L 185.269531 151.675781 "/>
<path style="fill:none;stroke-width:1.2;stroke-linecap:butt;stroke-linejoin:miter;stroke:rgb(0%,0%,0%);stroke-opacity:1;stroke-miterlimit:10;" d="M 185.269531 151.675781 L 173.191406 144.164062 "/>
<path style="fill:none;stroke-width:1.2;stroke-linecap:butt;stroke-linejoin:miter;stroke:rgb(0%,0%,100%);stroke-opacity:1;stroke-miterlimit:10;" d="M 197.347656 159.191406 L 198.367188 173.375 "/>
<path style="fill:none;stroke-width:1.2;stroke-linecap:butt;stroke-linejoin:miter;stroke:rgb(0%,0%,0%);stroke-opacity:1;stroke-miterlimit:10;" d="M 198.367188 173.375 L 199.390625 187.5625 "/>
<path style=" stroke:none;fill-rule:nonzero;fill:rgb(100%,100%,100%);fill-opacity:1;" d="M 193.347656 152.691406 L 201.347656 152.691406 L 201.347656 165.691406 L 193.347656 165.691406 Z M 193.347656 152.691406 "/>
<g style="fill:rgb(0%,0%,100%);fill-opacity:1;">
  <use xlink:href="#glyph0-2" x="193.347656" y="162.592773"/>
</g>
<path style="fill:none;stroke-width:1.2;stroke-linecap:butt;stroke-linejoin:miter;stroke:rgb(0%,0%,0%);stroke-opacity:1;stroke-miterlimit:10;" d="M 199.390625 187.5625 L 175.835938 203.519531 "/>
<path style="fill:none;stroke-width:1.2;stroke-linecap:butt;stroke-linejoin:miter;stroke:rgb(0%,0%,0%);stroke-opacity:1;stroke-miterlimit:10;" d="M 175.835938 203.519531 L 163.039062 197.3125 "/>
<path style="fill:none;stroke-width:1.2;stroke-linecap:butt;stroke-linejoin:miter;stroke:rgb(100%,0%,0%);stroke-opacity:1;stroke-miterlimit:10;" d="M 163.039062 197.3125 L 150.242188 191.101562 "/>
<path style="fill:none;stroke-width:1.2;stroke-linecap:butt;stroke-linejoin:miter;stroke:rgb(0%,0%,0%);stroke-opacity:1;stroke-miterlimit:10;" d="M 175.835938 203.519531 L 177.878906 231.894531 "/>
<path style=" stroke:none;fill-rule:nonzero;fill:rgb(100%,100%,100%);fill-opacity:1;" d="M 133.242188 184.601562 L 150.242188 184.601562 L 150.242188 197.601562 L 133.242188 197.601562 Z M 133.242188 184.601562 "/>
<g style="fill:rgb(100%,0%,0%);fill-opacity:1;">
  <use xlink:href="#glyph0-3" x="133.242188" y="194.50293"/>
  <use xlink:href="#glyph0-1" x="141.266602" y="194.50293"/>
</g>
<path style="fill:none;stroke-width:1.2;stroke-linecap:butt;stroke-linejoin:miter;stroke:rgb(0%,0%,0%);stroke-opacity:1;stroke-miterlimit:10;" d="M 177.878906 231.894531 L 166.105469 239.875 "/>
<path style="fill:none;stroke-width:1.2;stroke-linecap:butt;stroke-linejoin:miter;stroke:rgb(100%,0%,0%);stroke-opacity:1;stroke-miterlimit:10;" d="M 166.105469 239.875 L 154.328125 247.851562 "/>
<path style=" stroke:none;fill-rule:nonzero;fill:rgb(100%,100%,100%);fill-opacity:1;" d="M 137.328125 241.351562 L 154.328125 241.351562 L 154.328125 254.351562 L 137.328125 254.351562 Z M 137.328125 241.351562 "/>
<g style="fill:rgb(100%,0%,0%);fill-opacity:1;">
  <use xlink:href="#glyph0-3" x="137.328125" y="251.25293"/>
  <use xlink:href="#glyph0-1" x="145.352539" y="251.25293"/>
</g>
<path style="fill:none;stroke-width:1.2;stroke-linecap:butt;stroke-linejoin:miter;stroke:rgb(0%,0%,0%);stroke-opacity:1;stroke-miterlimit:10;" d="M 247.28125 144.761719 L 264.75 122.308594 "/>
<path style="fill:none;stroke-width:1.2;stroke-linecap:butt;stroke-linejoin:miter;stroke:rgb(0%,0%,0%);stroke-opacity:1;stroke-miterlimit:10;" d="M 243.746094 138.40625 L 257.71875 120.441406 "/>
<path style="fill:none;stroke-width:1.2;stroke-linecap:butt;stroke-linejoin:miter;stroke:rgb(0%,0%,0%);stroke-opacity:1;stroke-miterlimit:10;" d="M 264.75 122.308594 L 254.039062 95.953125 "/>
<path style="fill:none;stroke-width:1.2;stroke-linecap:butt;stroke-linejoin:miter;stroke:rgb(0%,0%,0%);stroke-opacity:1;stroke-miterlimit:10;" d="M 254.039062 95.953125 L 225.859375 92.050781 "/>
<path style="fill:none;stroke-width:1.2;stroke-linecap:butt;stroke-linejoin:miter;stroke:rgb(0%,0%,0%);stroke-opacity:1;stroke-miterlimit:10;" d="M 250.304688 102.191406 L 227.757812 99.070312 "/>
<path style="fill:none;stroke-width:1.2;stroke-linecap:butt;stroke-linejoin:miter;stroke:rgb(0%,0%,0%);stroke-opacity:1;stroke-miterlimit:10;" d="M 118.285156 120.988281 L 89.910156 123.03125 "/>
<path style="fill:none;stroke-width:1.2;stroke-linecap:butt;stroke-linejoin:miter;stroke:rgb(0%,0%,0%);stroke-opacity:1;stroke-miterlimit:10;" d="M 128.996094 147.34375 L 118.285156 120.988281 "/>
<path style="fill:none;stroke-width:1.2;stroke-linecap:butt;stroke-linejoin:miter;stroke:rgb(0%,0%,0%);stroke-opacity:1;stroke-miterlimit:10;" d="M 121.722656 147.230469 L 113.15625 126.144531 "/>
<path style="fill:none;stroke-width:1.2;stroke-linecap:butt;stroke-linejoin:miter;stroke:rgb(0%,0%,0%);stroke-opacity:1;stroke-miterlimit:10;" d="M 89.910156 123.03125 L 83.085938 150.648438 "/>
<path style="fill:none;stroke-width:1.2;stroke-linecap:butt;stroke-linejoin:miter;stroke:rgb(0%,0%,0%);stroke-opacity:1;stroke-miterlimit:10;" d="M 82.730469 124.1875 L 77.269531 146.28125 "/>
<path style="fill:none;stroke-width:1.2;stroke-linecap:butt;stroke-linejoin:miter;stroke:rgb(0%,0%,0%);stroke-opacity:1;stroke-miterlimit:10;" d="M 69.40625 103.3125 L 89.910156 123.03125 "/>
<path style="fill:none;stroke-width:1.2;stroke-linecap:butt;stroke-linejoin:miter;stroke:rgb(0%,0%,0%);stroke-opacity:1;stroke-miterlimit:10;" d="M 83.085938 150.648438 L 95.164062 158.164062 "/>
<path style="fill:none;stroke-width:1.2;stroke-linecap:butt;stroke-linejoin:miter;stroke:rgb(0%,0%,100%);stroke-opacity:1;stroke-miterlimit:10;" d="M 95.164062 158.164062 L 107.242188 165.675781 "/>
<path style="fill:none;stroke-width:1.2;stroke-linecap:butt;stroke-linejoin:miter;stroke:rgb(0%,0%,0%);stroke-opacity:1;stroke-miterlimit:10;" d="M 83.085938 150.648438 L 55.753906 158.546875 "/>
<path style="fill:none;stroke-width:1.2;stroke-linecap:butt;stroke-linejoin:miter;stroke:rgb(0%,0%,100%);stroke-opacity:1;stroke-miterlimit:10;" d="M 107.242188 165.675781 L 118.117188 156.511719 "/>
<path style="fill:none;stroke-width:1.2;stroke-linecap:butt;stroke-linejoin:miter;stroke:rgb(0%,0%,0%);stroke-opacity:1;stroke-miterlimit:10;" d="M 118.117188 156.511719 L 128.996094 147.34375 "/>
<path style="fill:none;stroke-width:1.2;stroke-linecap:butt;stroke-linejoin:miter;stroke:rgb(0%,0%,100%);stroke-opacity:1;stroke-miterlimit:10;" d="M 107.242188 165.675781 L 108.261719 179.863281 "/>
<path style="fill:none;stroke-width:1.2;stroke-linecap:butt;stroke-linejoin:miter;stroke:rgb(0%,0%,0%);stroke-opacity:1;stroke-miterlimit:10;" d="M 108.261719 179.863281 L 109.285156 194.050781 "/>
<path style=" stroke:none;fill-rule:nonzero;fill:rgb(100%,100%,100%);fill-opacity:1;" d="M 103.242188 159.175781 L 111.242188 159.175781 L 111.242188 172.175781 L 103.242188 172.175781 Z M 103.242188 159.175781 "/>
<g style="fill:rgb(0%,0%,100%);fill-opacity:1;">
  <use xlink:href="#glyph0-2" x="103.242188" y="169.077148"/>
</g>
<path style="fill:none;stroke-width:1.2;stroke-linecap:butt;stroke-linejoin:miter;stroke:rgb(0%,0%,0%);stroke-opacity:1;stroke-miterlimit:10;" d="M 55.753906 158.546875 L 35.25 138.828125 "/>
<path style="fill:none;stroke-width:1.2;stroke-linecap:butt;stroke-linejoin:miter;stroke:rgb(0%,0%,0%);stroke-opacity:1;stroke-miterlimit:10;" d="M 58.34375 151.75 L 41.941406 135.976562 "/>
<path style="fill:none;stroke-width:1.2;stroke-linecap:butt;stroke-linejoin:miter;stroke:rgb(0%,0%,0%);stroke-opacity:1;stroke-miterlimit:10;" d="M 35.25 138.828125 L 42.074219 111.210938 "/>
<path style="fill:none;stroke-width:1.2;stroke-linecap:butt;stroke-linejoin:miter;stroke:rgb(0%,0%,0%);stroke-opacity:1;stroke-miterlimit:10;" d="M 42.074219 111.210938 L 69.40625 103.3125 "/>
<path style="fill:none;stroke-width:1.2;stroke-linecap:butt;stroke-linejoin:miter;stroke:rgb(0%,0%,0%);stroke-opacity:1;stroke-miterlimit:10;" d="M 46.667969 116.851562 L 68.53125 110.535156 "/>
</g>
</svg>

<svg xmlns="http://www.w3.org/2000/svg" xmlns:xlink="http://www.w3.org/1999/xlink" width="300pt" height="300pt" viewBox="0 0 300 300"><defs><symbol overflow="visible"><path d="M.547 1.938V-7.75h5.5v9.688zm.625-.61h4.266v-8.47H1.171zm0 0"/></symbol><symbol overflow="visible" id="a"><path d="M4.328-7.28c-.78 0-1.406.296-1.875.89-.46.585-.687 1.382-.687 2.39 0 1.012.226 1.813.687 2.406.47.586 1.094.875 1.875.875.79 0 1.414-.288 1.875-.874.457-.593.688-1.394.688-2.406 0-1.008-.23-1.805-.687-2.39-.46-.594-1.086-.89-1.875-.89zm0-.892c1.125 0 2.024.383 2.703 1.14C7.708-6.28 8.048-5.27 8.048-4c0 1.262-.34 2.273-1.016 3.03C6.353-.22 5.454.157 4.33.157S2.3-.22 1.625-.97c-.668-.75-1-1.757-1-3.03 0-1.27.332-2.28 1-3.03.676-.76 1.578-1.142 2.703-1.142zm0 0"/></symbol><symbol overflow="visible" id="b"><path d="M1.078-8.016h1.47l3.546 6.704v-6.704h1.062V0H5.688L2.124-6.703V0H1.078zm0 0"/></symbol><symbol overflow="visible" id="c"><path d="M1.078-8.016h1.094v3.282H6.11v-3.282h1.077V0H6.11v-3.813H2.17V0H1.078zm0 0"/></symbol></defs><g><path fill="#fff" d="M0 0h300v300H0z"/><path d="M193.605 53.363L180.43 58.72" stroke-width="1.2" stroke="#f00" stroke-miterlimit="10" fill="none"/><path d="M180.43 58.72l-13.18 5.354" stroke-width="1.2" stroke="#000" stroke-miterlimit="10" fill="none"/><path d="M196.125 59.563l-13.176 5.355" stroke-width="1.2" stroke="#f00" stroke-miterlimit="10" fill="none"/><path d="M182.95 64.918l-13.18 5.355" stroke-width="1.2" stroke="#000" stroke-miterlimit="10" fill="none"/><path d="M190.867 49.965h9v13h-9zm0 0" fill="#fff"/><use xlink:href="#a" x="190.867" y="59.866" fill="#f00"/><path d="M168.512 67.176l-12.078-7.516" stroke-width="1.2" stroke="#000" stroke-miterlimit="10" fill="none"/><path d="M156.434 59.66l-12.08-7.512" stroke-width="1.2" stroke="#00f" stroke-miterlimit="10" fill="none"/><path d="M161.688 94.793l6.824-27.617" stroke-width="1.2" stroke="#000" stroke-miterlimit="10" fill="none"/><path d="M144.355 52.148l-10.878 9.164" stroke-width="1.2" stroke="#00f" stroke-miterlimit="10" fill="none"/><path d="M133.477 61.313l-10.875 9.167" stroke-width="1.2" stroke="#000" stroke-miterlimit="10" fill="none"/><path d="M136.355 45.648h17v13h-17zm0 0" fill="#fff"/><g fill="#00f"><use xlink:href="#b" x="136.355" y="55.55"/><use xlink:href="#c" x="144.339" y="55.55"/></g><path d="M123.402 67.23l-13.808-3.414" stroke-width="1.2" stroke="#000" stroke-miterlimit="10" fill="none"/><path d="M109.594 63.816l-13.81-3.414" stroke-width="1.2" stroke="#f00" stroke-miterlimit="10" fill="none"/><path d="M121.797 73.727l-13.81-3.41" stroke-width="1.2" stroke="#000" stroke-miterlimit="10" fill="none"/><path d="M107.988 70.316L94.18 66.902" stroke-width="1.2" stroke="#f00" stroke-miterlimit="10" fill="none"/><path d="M122.602 70.48l10.71 26.352" stroke-width="1.2" stroke="#000" stroke-miterlimit="10" fill="none"/><path d="M85.984 57.152h9v13h-9zm0 0" fill="#fff"/><use xlink:href="#a" x="85.984" y="67.054" fill="#f00"/><path d="M133.313 96.832l28.375-2.04M135.668 89.953l22.7-1.633M133.313 96.832l-15.028 24.156M161.688 94.793l18.328 21.754M180.016 116.547l28.375-2.043M173.19 144.164l6.826-27.617M180.37 143.008l5.462-22.094M208.39 114.504l10.712 26.355M215.664 114.617l8.566 21.086M225.86 92.05l-17.47 22.454M219.102 140.86l-10.88 9.163" stroke-width="1.2" stroke="#000" stroke-miterlimit="10" fill="none"/><path d="M208.223 150.023l-10.875 9.168" stroke-width="1.2" stroke="#00f" stroke-miterlimit="10" fill="none"/><path d="M219.102 140.86l28.18 3.902" stroke-width="1.2" stroke="#000" stroke-miterlimit="10" fill="none"/><path d="M197.348 159.19l-12.078-7.514" stroke-width="1.2" stroke="#00f" stroke-miterlimit="10" fill="none"/><path d="M185.27 151.676l-12.08-7.512" stroke-width="1.2" stroke="#000" stroke-miterlimit="10" fill="none"/><path d="M197.348 159.19l1.02 14.185" stroke-width="1.2" stroke="#00f" stroke-miterlimit="10" fill="none"/><path d="M198.367 173.375l1.024 14.188" stroke-width="1.2" stroke="#000" stroke-miterlimit="10" fill="none"/><path d="M193.348 152.69h8v13h-8zm0 0" fill="#fff"/><use xlink:href="#b" x="193.348" y="162.593" fill="#00f"/><path d="M199.39 187.563l-23.554 15.957M175.836 203.52l-12.797-6.208" stroke-width="1.2" stroke="#000" stroke-miterlimit="10" fill="none"/><path d="M163.04 197.313l-12.798-6.21" stroke-width="1.2" stroke="#f00" stroke-miterlimit="10" fill="none"/><path d="M175.836 203.52l2.043 28.375" stroke-width="1.2" stroke="#000" stroke-miterlimit="10" fill="none"/><path d="M133.242 184.602h17v13h-17zm0 0" fill="#fff"/><g fill="#f00"><use xlink:href="#c" x="133.242" y="194.503"/><use xlink:href="#a" x="141.267" y="194.503"/></g><path d="M177.88 231.895l-11.775 7.98" stroke-width="1.2" stroke="#000" stroke-miterlimit="10" fill="none"/><path d="M166.105 239.875l-11.777 7.977" stroke-width="1.2" stroke="#f00" stroke-miterlimit="10" fill="none"/><path d="M137.328 241.352h17v13h-17zm0 0" fill="#fff"/><g fill="#f00"><use xlink:href="#c" x="137.328" y="251.253"/><use xlink:href="#a" x="145.353" y="251.253"/></g><path d="M247.28 144.762l17.47-22.453M243.746 138.406l13.973-17.965M264.75 122.31l-10.71-26.357M254.04 95.953l-28.18-3.902M250.305 102.19l-22.547-3.12M118.285 120.988L89.91 123.03M128.996 147.344l-10.71-26.356M121.723 147.23l-8.567-21.085M89.91 123.03l-6.824 27.618M82.73 124.188l-5.46 22.093M69.406 103.313L89.91 123.03M83.086 150.648l12.078 7.516" stroke-width="1.2" stroke="#000" stroke-miterlimit="10" fill="none"/><path d="M95.164 158.164l12.078 7.512" stroke-width="1.2" stroke="#00f" stroke-miterlimit="10" fill="none"/><path d="M83.086 150.648l-27.332 7.9" stroke-width="1.2" stroke="#000" stroke-miterlimit="10" fill="none"/><path d="M107.242 165.676l10.875-9.164" stroke-width="1.2" stroke="#00f" stroke-miterlimit="10" fill="none"/><path d="M118.117 156.512l10.88-9.168" stroke-width="1.2" stroke="#000" stroke-miterlimit="10" fill="none"/><path d="M107.242 165.676l1.02 14.187" stroke-width="1.2" stroke="#00f" stroke-miterlimit="10" fill="none"/><path d="M108.262 179.863l1.023 14.188" stroke-width="1.2" stroke="#000" stroke-miterlimit="10" fill="none"/><path d="M103.242 159.176h8v13h-8zm0 0" fill="#fff"/><use xlink:href="#b" x="103.242" y="169.077" fill="#00f"/><path d="M55.754 158.547l-20.504-19.72M58.344 151.75L41.94 135.977M35.25 138.828l6.824-27.617M42.074 111.21l27.332-7.897M46.668 116.852l21.863-6.317" stroke-width="1.2" stroke="#000" stroke-miterlimit="10" fill="none"/></g></svg>
